!!!OTL: Laogongji
!!!ARE: Asia, China,ÿJiangxi Pingxiang
!! IV, 216
!!!SCT: C1797
!!!YEM: Copyright 1995, estate of Helmut Schaffrath.
**kern
*ICvox
*Ivox
!! 3+2 metric grouping
!! Mixed meters:  4/4; 5/4
*M5/4
*k[f#c#g#d#]
*E:
{16ee
8.cc#
8ee
8ee
4cc#
8ee
8cc#
4g#}
=1
*M4/4
{8ee
8cc#
8cc#
8gg#
8ee
8cc#
4cc#}
=2
{8cc#
8cc#
16ee
8.ee
8ee
8cc#
4ee}
=3
{8gg#
8cc#
16cc#
8.ee
8.cc#
16cc#
4cc#}
=4
{8ee
8ee
8ee
8cc#
8gg#
8cc#
4ee}
=5
{8cc#
8cc#
8cc#
8ee
16cc#
8ee
16cc#
4cc#}
=6
{16ee
16g#
16cc#
16cc#
8g#
8g#
8cc#
16cc#
16ee
4cc#}
=7
{8r
16ee
16ee
8cc#
8cc#
8g#
8b#
4cc#
4cc#}
==
!!!AGN: Shange
!!!AMT: irregular
!!!AIN: vox
!!!EED: Helmut Schaffrath
!!!EEV: 1.0
*-
